X: 25895
T: Matt Peoples'
R: reel
M: 4/4
K: Dmajor
FABc d2 BA|d2 BA FE E2|FABc dBBA|1 f3e dBBA:|2 f3e defg||
AD D2 ADBD|ADDE FE E2|AD D2 A3F|EGFE dBBA|
AD D2 ADBD|ADDE FE E2|FAAF B2 AF|EGFE dBBA||

